public/tokens/ETH.svg

<svg width="40" height="40" viewBox="0 0 40 40" fill="none" xmlns="http://www.w3.org/2000/svg">
<circle cx="20" cy="20" r="20" fill="#627EEA"/>
<path d="M20.3726 5V16.0875L29.7438 20.275L20.3726 5Z" fill="white" fill-opacity="0.602"/>
<path d="M20.3737 5L11.0012 20.275L20.3737 16.0875V5Z" fill="white"/>
<path d="M20.3726 27.4601V34.9938L29.7501 22.0201L20.3726 27.4601Z" fill="white" fill-opacity="0.602"/>
<path d="M20.3737 34.9938V27.4588L11.0012 22.0201L20.3737 34.9938Z" fill="white"/>
<path d="M20.3726 25.7158L29.7438 20.2746L20.3726 16.0896V25.7158Z" fill="white" fill-opacity="0.2"/>
<path d="M11.0012 20.2746L20.3737 25.7158V16.0896L11.0012 20.2746Z" fill="white" fill-opacity="0.602"/>
</svg>

<svg xmlns="http://www.w3.org/2000/svg" width="40" height="40" fill="none" viewBox="0 0 40 40"><circle cx="20" cy="20" r="20" fill="#627eea"/><path fill="#fff" fill-opacity=".602" d="M20.373 5v11.087l9.37 4.188z"/><path fill="#fff" d="M20.374 5 11 20.275l9.373-4.187z"/><path fill="#fff" fill-opacity=".602" d="M20.373 27.46v7.534L29.75 22.02z"/><path fill="#fff" d="M20.374 34.994v-7.535L11 22.02z"/><path fill="#fff" fill-opacity=".2" d="m20.373 25.716 9.37-5.441-9.37-4.185z"/><path fill="#fff" fill-opacity=".602" d="m11.001 20.275 9.373 5.44V16.09z"/></svg>
